X:1
T:Title
%%score { ( 1 4 5 ) | ( 2 3 ) }
L:1/8
M:4/4
K:F
V:1 treble nm="Grand Piano"
V:4 treble 
V:5 treble 
V:2 bass 
V:3 bass 
V:1
 z4 z[Q:1/4=108] AA_A | A2 E2 F2 E2 | D6 z2 | F2 D2 B2 G2 | E6 z2 | G2 A2 B2 G2 | E6 z2 | %7
 A2 G2 F2 G2 |[M:5/8] A-A- A3 |[M:3/8] z3 |[M:4/4] A2 E2 F2 E2 | D6 z2 | F2 D2 B2 G2 | E6 z2 | %14
 G2 A2 B2 G2 | E6 z2 | A2 G2 F2 G2 |[M:5/8] A-A- A3 |[M:3/8] z3 |[M:4/4] d2 A2 c2 B2 | G4- GGcd | %21
 c2 F2 G2 _A2 | A6 z2 | G2 F2 E2 D2 | z4 z ^CCD | E2 G2 F2 E2 | D6 z2 |] %27
V:2
 z8 | D,2 [F,A,]2 ^C,2 [G,A,]2 | D,2 F,A, z DDE | D,2 [F,A,]2 D,2 [F,A,]2 | %4
 ^C,2 E,G, z[K:treble] EEF | ^C,2 [G,A,]4 [G,A,]2 | ^C,2 G,2 z[K:treble] EcB | %7
 ^C,2 [G,A,]4 [G,A,]2 |[M:5/8] D,2 F,2 A, |[M:3/8][K:treble] AA_A | %10
[M:4/4][K:bass] D,2 [F,A,]2 ^C,2 [G,A,]2 | D,2 F,A, z DDE | D,2 [F,A,]2 D,2 [F,A,]2 | %13
 ^C,2 E,G, z[K:treble] EEF | ^C,2 [G,A,]4 [G,A,]2 | ^C,2 G,2 z[K:treble] EcB | %16
 ^C,2 [G,A,]4 [G,A,]2 |[M:5/8] D,2 F,2 A, |[M:3/8][K:treble] Ade | %19
[M:4/4][K:bass] D,2 [F,A,]2 [D,G,B,]4 | D,2 G,2 B,2 z2 | [E,G,B,]4 z4 | D,2 F,2 z[K:treble] ABA | %23
 ^C,2 [G,A,]4 [G,A,]2 | ^C,2 G,4 [G,A,]2 | ^C,2 [G,A,]4 [G,A,]2 | [D,F,A,]6 z2 |] %27
V:3
 x8 | x8 | z4 D,2 z2 | x8 | z4 A,2[K:treble] z2 | x8 | z4 A,2[K:treble] z2 | x8 |[M:5/8] x5 | %9
[M:3/8][K:treble] x3 |[M:4/4][K:bass] x8 | z4 D,2 z2 | x8 | z4 A,2[K:treble] z2 | x8 | %15
 z4 A,2[K:treble] z2 | x8 |[M:5/8] x5 |[M:3/8][K:treble] x3 |[M:4/4][K:bass] x8 | x8 | x8 | %22
 z4 A,2[K:treble] z2 | x8 | x8 | x8 | x8 |] %27
V:4
 x8 | x8 | x8 | x8 | x8 | x8 | x8 | x8 |[M:5/8] x5 |[M:3/8] x3 |[M:4/4] x8 | x8 | x8 | x8 | x8 | %15
 x8 | x8 |[M:5/8] x5 |[M:3/8] x3 |[M:4/4] x8 | x8 | x8 | x8 | x8 | ^C6 z2 | x8 | x8 |] %27
V:5
 x8 | x8 | x8 | x8 | x8 | x8 | x8 | x8 |[M:5/8] x5 |[M:3/8] x3 |[M:4/4] x8 | x8 | x8 | x8 | x8 | %15
 x8 | x8 |[M:5/8] x5 |[M:3/8] x3 |[M:4/4] x8 | x8 | x8 | x8 | x8 | z2 A,4 z2 | x8 | x8 |] %27

